X:4587413
%%MIDI ratio 2 1
%%pagescale .95
T:Valse Louise
T:Valse Aldor
C:Aldor Morin (1921-1998) or Fortunat Malouin (1870-1935) (maybe)
S:Aldor Morin, $2Collection Les Grands Folkloristes QuÃ©bÃ©cois.$0 Disques MÃ©rite 1376
S:(Copie MaÃ®tre London Records Et Bonanza), CD compilation, 2006.
S:Much of this information comes from a nice article about him at:
S:http://mnemo.qc.ca/bulletin-mnemo/article/aldor-morin-harmoniciste-calleur.
H:This is a transcription of Aldor Morin playing the tune on harmonica. I include
H:a few attempts at transcribing harmonica ornamentation, but didn't try to be
H:complete in part for reasons of legibility, and in part due to my limited ability
H:to transcribe many of the details. Chords are transcribed from the recording as
H:accurately as I could.
H:
H:Aldor Morin got started playing harmonica at the age of 6. He learned harmonica 
H:from Madame Bolduc and by the age of 7 was playing out around QuÃ©bec. He played 
H:with Jean Carignan, Tommy Duschesne and Isidore Soucy among others. He was also 
H:known as a caller, and he wrote a number of excellent tunes. 
N:From NH Country Dance (URL below), along with many New England, Canadian & Swedish
N:tunes, and resources for abc notation and New England traditional music and dance.
%
N: Note #1: To preserve formatting (font, spacing, etc.), use the
N: file header at the URL below; just follow accompanying instructions.
%
N: Note #2: This abc code is optimized for use with abcm2ps, which is used by
N: EasyABC and other abc apps. To abc2svg for display or printing look to see if there
N: is a file optimized for abc2svg. If not you may need to adjust the spacing in places.
%
Z:abc-transcription Peter Yarensky. I rely heavily on careful listening to the
Z:named sources aided by software to hear details. While not perfect, known
Z:substantial differences from other written sources receive careful attention.
Z:abc-copyright Peter Yarensky. You may reproduce this tune freely but
Z:please include the entire abc file including all the notes.
%%writefields HQSD
F:Tunes Home Page - https://fiddle-tunes.nhcountrydance.com/
F:abc Header & its Usage - https://fiddle-tunes.nhcountrydance.com/header-page/
M:3/4
L:1/8
R:Waltz
G:Couples Dances ~ Waltzes ~ Canadian
N: Tune Tags ~ Waltz, Canadian, Aldor Morin (1921-1998)
K:G
%%textfont Palatino-Italic 14
%%text As Played by Aldor Morin.
%%text Dotted pairs get a 2:1 ratio (e.g. 1/4 & 1/8 notes)
%%textfont Palatino-Roman 16
%%
G |\
"G" B4-B G       | "G" B4 c2        | "G" {G}B2 {G}B2 {G}B>G | "G" D3 E F>G |\
"D7" {G}A6       | "D7" {G}A4 {A}B2 | "D7" {G}A4 G2    | "D7" D2 E>F G>A    |
"G" B4-B G       | "G" B4 c2        | "G" {G}B2 {G}B2 (3GBG  | "G" D6       |\
"D7" zD E>F G>A  | "D7" B4 A2       | "G" D4 F>E       | "G" D2 C2- C>D     |
"G" B4-B G       | "G" B4 c2        | "G" {G}B2 {G}B2 (3GBG  | "G" D3 E F>G |\
"D7" A4-A>G      | "D7" A4 B2       | "D7" A4 (3GBG    | "D7" D4-D>E        |
"G" D2>B,2 D2    | "G" G4-GF        | "C" E2>C2 E2     | "C" A4 (3GAG       |\
"D7" F>G A>B c>d | "D7" e3 z zF     | "G" G3 F G>A     | "G" G2 z2          ||
[K:C] |: ga      |\
"C" g>e c>G c>e  | "C" g>e c>G c>e  | "C" g2 f2 (3efe  | "G7" f3 z f>g      |\
"G7" f>d B>G B>d | "G7" f>d .Bz B>d | "G7" f2 e2 d2    | "C" e3 z e>g       |
"C" c'>g e>c e>g | "C" c'>g .ez e>g | "F" b2 a2 aa     | "F" a4 g>a         |
"G7" b2 a2 g2    | "G7" f2 e2 d2    |1 "C" c3 B c>d    | "C" c3 z          :|2\
"C" c6-          | "C" c z z2 z     |]

